assets/svg/1F238.svg

<svg xmlns="http://www.w3.org/2000/svg" viewBox="0 0 64 64" enable-background="new 0 0 64 64"><path fill="#f6921e" d="m63.969 57.14c0 3.811-3.088 6.89-6.89 6.89h-50.16c-3.802 0-6.889-3.079-6.889-6.89v-50.15c0-3.81 3.087-6.889 6.889-6.889h50.16c3.802 0 6.89 3.079 6.89 6.889v50.15"/><path fill="#d07929" d="m.032 48.711v8.358c0 3.81 3.085 6.897 6.889 6.897h50.15c3.81 0 6.894-3.088 6.894-6.897v-50.15c-10.92 39.658-50.17 42.17-63.937 41.791"/><path fill="#fff" d="m51.784 18.08c-.059-1.316-.63-2.424-1.599-2.809-5.393-2.113-10.985-2.325-16.61-1.968-.084-1.681-.173-3.366-.294-5.04-.262-3.584-4.723-3.62-4.462 0 .133 1.805.232 3.609.316 5.414-4.587.461-9.166 1.068-13.644 1.105-.874.008-1.477.578-1.804 1.361-.883.251-1.614 1.154-1.549 2.729.304 7.267.658 14.521 1.84 21.634.158.932.825 1.851 1.524 2.039 4.507 1.217 9.139 1.284 13.747 1.471-.065 3.947-.12 7.889-.125 11.836-.008 3.629 4.451 3.629 4.462 0 .004-3.856.06-7.714.118-11.571 4.01.352 8.127 1.856 12.11.37 3.435-1.277 4.536-6.478 5.173-10.59.802-5.187 1.03-10.69.802-15.976m-4.301 2.27c.021 1.595-.008 3.195-.07 4.793-4.513-.025-9.03-.202-13.535-.294-.018-1.938-.043-3.876-.095-5.815 4.643-.279 9.25-.114 13.7 1.316m-18.15-.939c.041 1.795.067 3.594.08 5.389-4.205-.002-8.408.149-12.604.667-.093-1.626-.178-3.256-.248-4.888 4.186-.119 8.477-.724 12.772-1.168m-11.417 17.813c-.326-2.219-.554-4.454-.747-6.695 4.078-.485 8.163-.634 12.249-.63-.014 2.761-.038 5.526-.081 8.287-3.818-.138-7.674-.15-11.421-.962m25.02 2.193c-3.05.295-6.105-.601-9.145-.944.046-2.844.069-5.688.085-8.527 4.388.09 8.778.259 13.166.293-.018.155-.02.316-.036.471-.407 3.808-.694 8.383-4.07 8.707"/></svg>

<?xml version="1.0" encoding="UTF-8" standalone="no"?>
<!-- Generator: Adobe Illustrator 16.0.0, SVG Export Plug-In . SVG Version: 6.00 Build 0)  -->

<svg
   xmlns:dc="http://purl.org/dc/elements/1.1/"
   xmlns:cc="http://creativecommons.org/ns#"
   xmlns:rdf="http://www.w3.org/1999/02/22-rdf-syntax-ns#"
   xmlns:svg="http://www.w3.org/2000/svg"
   xmlns="http://www.w3.org/2000/svg"
   xmlns:sodipodi="http://sodipodi.sourceforge.net/DTD/sodipodi-0.dtd"
   xmlns:inkscape="http://www.inkscape.org/namespaces/inkscape"
   version="1.1"
   id="Layer_1"
   x="0px"
   y="0px"
   width="64px"
   height="64px"
   viewBox="0 0 64 64"
   enable-background="new 0 0 64 64"
   xml:space="preserve"
   inkscape:version="0.48.5 r10040"
   sodipodi:docname="1F238.svg"
   inkscape:export-filename="D:\TESTINGEMOJI\SVGTEST\1F238.png"
   inkscape:export-xdpi="90"
   inkscape:export-ydpi="90"><metadata
   id="metadata5232"><rdf:RDF><cc:Work
       rdf:about=""><dc:format>image/svg+xml</dc:format><dc:type
         rdf:resource="http://purl.org/dc/dcmitype/StillImage" /><dc:title></dc:title></cc:Work></rdf:RDF></metadata><defs
   id="defs5230" /><sodipodi:namedview
   pagecolor="#ffffff"
   bordercolor="#666666"
   borderopacity="1"
   objecttolerance="10"
   gridtolerance="10"
   guidetolerance="10"
   inkscape:pageopacity="0"
   inkscape:pageshadow="2"
   inkscape:window-width="640"
   inkscape:window-height="480"
   id="namedview5228"
   showgrid="false"
   inkscape:zoom="3.6875"
   inkscape:cx="32"
   inkscape:cy="32"
   inkscape:window-x="676"
   inkscape:window-y="327"
   inkscape:window-maximized="0"
   inkscape:current-layer="Layer_1" />
<g
   id="g5218">
	<g
   id="g5220">
		<path
   fill="#F6921E"
   d="M63.969,57.144c0,3.811-3.088,6.89-6.89,6.89H6.921c-3.802,0-6.889-3.079-6.889-6.89V6.991    c0-3.81,3.087-6.889,6.889-6.889h50.158c3.802,0,6.89,3.079,6.89,6.889V57.144z"
   id="path5222" />
		<path
   fill="#D07929"
   d="M0.032,48.711v8.358c0,3.81,3.085,6.897,6.889,6.897h50.154c3.81,0,6.894-3.088,6.894-6.897V6.92    C53.049,46.578,13.802,49.092,0.032,48.711z"
   id="path5224" />
	</g>
	<path
   fill="#FFFFFF"
   d="M51.784,18.083c-0.059-1.316-0.63-2.424-1.599-2.809c-5.393-2.113-10.985-2.325-16.61-1.968   c-0.084-1.681-0.173-3.366-0.294-5.045c-0.262-3.584-4.723-3.62-4.462,0c0.133,1.805,0.232,3.609,0.316,5.414   c-4.587,0.461-9.166,1.068-13.644,1.105c-0.874,0.008-1.477,0.578-1.804,1.361c-0.883,0.251-1.614,1.154-1.549,2.729   c0.304,7.267,0.658,14.521,1.84,21.634c0.158,0.932,0.825,1.851,1.524,2.039c4.507,1.217,9.139,1.284,13.747,1.471   c-0.065,3.947-0.12,7.889-0.125,11.836c-0.008,3.629,4.451,3.629,4.462,0c0.004-3.856,0.06-7.714,0.118-11.571   c4.012,0.352,8.127,1.856,12.105,0.37c3.435-1.277,4.536-6.478,5.173-10.59C51.784,28.872,52.012,23.369,51.784,18.083z    M47.483,20.353c0.021,1.595-0.008,3.195-0.07,4.793c-4.513-0.025-9.026-0.202-13.535-0.294c-0.018-1.938-0.043-3.876-0.095-5.815   C38.426,18.758,43.033,18.923,47.483,20.353z M29.335,19.414c0.041,1.795,0.067,3.594,0.08,5.389   c-4.205-0.002-8.408,0.149-12.604,0.667c-0.093-1.626-0.178-3.256-0.248-4.888C20.749,20.463,25.04,19.858,29.335,19.414z    M17.918,37.227c-0.326-2.219-0.554-4.454-0.747-6.695c4.078-0.485,8.163-0.634,12.249-0.63c-0.014,2.761-0.038,5.526-0.081,8.287   C25.521,38.051,21.665,38.039,17.918,37.227z M42.941,39.42c-3.05,0.295-6.105-0.601-9.145-0.944   c0.046-2.844,0.069-5.688,0.085-8.527c4.388,0.09,8.778,0.259,13.166,0.293c-0.018,0.155-0.02,0.316-0.036,0.471   C46.604,34.521,46.317,39.096,42.941,39.42z"
   id="path5226" />
</g>
</svg>
